X:1
T:Sally Brown
M:4/4
L:1/4
K:C
 C E G c/2B/2| A G E/2 G3/2| c2 d2| e d c2| e d c A| G E D/2 C3/2|\
 E E E/2E/2 G| D E C2|
